outputs/icons/action/visibility_off_sharp.svg

<svg width="1200" height="1200" viewBox="0 0 1200 1200" fill="none" xmlns="http://www.w3.org/2000/svg"><g clip-path="url(#clip0_117_777)"><path d="M600 325.01C738 325.01 850 437.01 850 575.01C850 600.51 845 625.01 838 648.01L991 801.01C1060.5 739.51 1115.5 662.51 1150 574.51C1063.5 355.51 850 200.01 600 200.01C536.5 200.01 475.5 210.01 418 228.51L526.5 337.01C550 330.01 574.5 325.01 600 325.01ZM171 122.51L100.5 193.51L234.5 327.51C153 391.51 88.5 476.51 50 575.01C136.5 794.51 350 950.01 600 950.01C676 950.01 748.5 935.01 815.5 909.01L987 1080.51L1057.5 1010.01L171 122.51ZM600 825.01C462 825.01 350 713.01 350 575.01C350 536.51 359 500.01 374.5 468.01L453 546.51C451.5 555.51 450 565.01 450 575.01C450 658.01 517 725.01 600 725.01C610 725.01 619 723.51 628.5 721.51L707 800.01C674.5 816.01 638.5 825.01 600 825.01ZM748.5 558.51C741 488.51 686 434.01 616.5 426.51L748.5 558.51Z" fill="#1D1E23"/></g><defs><clipPath id="clip0_117_777"><path width="24" fill="white" d="M0 0H1200V1200H0V0z"/></clipPath></defs></svg>

<svg xmlns="http://www.w3.org/2000/svg" width="1200" height="1200" fill="none"><g clip-path="url(#a)"><path fill="#000" d="M600 325.01c138 0 250 112 250 250 0 25.5-5 50-12 73l153 153c69.5-61.5 124.5-138.5 159-226.5-86.5-219-300-374.5-550-374.5-63.5 0-124.5 10-182 28.5l108.5 108.5c23.5-7 48-12 73.5-12m-429-202.5-70.5 71 134 134c-81.5 64-146 149-184.5 247.5 86.5 219.5 300 375 550 375 76 0 148.5-15 215.5-41l171.5 171.5 70.5-70.5zm429 702.5c-138 0-250-112-250-250 0-38.5 9-75 24.5-107l78.5 78.5c-1.5 9-3 18.5-3 28.5 0 83 67 150 150 150 10 0 19-1.5 28.5-3.5l78.5 78.5c-32.5 16-68.5 25-107 25m148.5-266.5c-7.5-70-62.5-124.5-132-132z"/></g><defs><clipPath id="a"><path fill="#fff" d="M0 0h1200v1200H0z"/></clipPath></defs></svg>
